X:1
T:O rex gloriae
T:Francisco Valls (1665-1747) Edited by Jonathan Goodliffe and Mick Swithinbank
T:Antiphon to the Magnificat for Second Vespers at Ascension
T:O rex gloriae
T:Motete a solo con violines para la Ascensión
T:Copyright © 
T:Copyright © 
T:Copyright © 
T:Copyright © 
T:Copyright © 
C:Francisco Valls (1665-1747)
C:Edited by Jonathan Goodliffe and Mick Swithinbank
Z:Antiphon to the Magnificat for
Z:Second Vespers at Ascension
Z:Copyright ©
%%score [ 1 2 ] 3 4
L:1/8
M:3/4
K:Bb
V:1 treble nm="Violin 1" snm="Vln. 1"
V:2 treble nm="Violin 2" snm="Vln. 2"
V:3 treble-8 transpose=-12 nm="Tenor" snm="T."
V:4 bass nm="Continuo" snm="Cont."
V:1
"^Largo" G2 G2 G2 | G2 G2 G2 | C2 _A2 A2 | G2 G2 G2 | F2 E2 E2 | E2 C2 D2 | E2 D4 | G2 G2 G2 | %8
 =B,2 B,2 B,2 | C2 C2 C2 | F2 G2 G2 | _A2 A2 G2 | F2 F2 F2 | E6 | %14
[M:4/4]"^\"Ayre\" [Vivace]" z g/_a/ b/a/g/a/ b/a/g/a/ f>e | e4 z4 | z e/f/ g/f/e/f/ ge z2 | %17
 z4 z d/e/ f/e/f/d/ | g2 z2 z4 | z A/B/ c/B/A/B/ c2 z2 | z4 z/ e/f/g/ _a/g/a/b/ | g/f/e/f/ e>e e4 | %22
[M:3/4]"^Largo" g>ggggg | f4 z2 | f>fffff | e4 z2 | C2 D2 E2 | F2 G2 A2 | B2 c2 d2 | e4 d2 | %30
 c2 d2 c2 | =B2 d2 G2 | z6 | z6 | b2 b>ag>f | =e2 g2 c2 | z6 | g>fg>_ag>f | e4 z2 | z6 | z6 | %41
 d2 d4 | d4 z a | b2 b>ag>f | =e2 e2 e2 | f6 | f6 | B4 z2 | z2 _a4 | g2 g4 | g4 f2 | e6 | %52
[M:4/4]"^Ayre" c/=B/c/d/ ef/e/ d/c/d/e/ fg/f/ | e/d/e/f/ gg g2 ^f2 | g4 z4 | g2 G2 g2 z2 | %56
 c/B/c/d/ ef/e/ d/c/d/e/ fg/f/ | e2 B2 B2 z2 | B/A/B/c/ de/d/ c/B/c/d/ ef/e/ | dc/B/ f4 =e2 | %60
 c/B/c/d/ ef/e/ d/c/d/e/ fg/f/ | e/d/e/f/ g4 f2- | f2 e2 d4 | c8 |] %64
V:2
 E2 E2 E2 | =E2 E2 E2 | F2 F2 F2 | C2 C2 C2 | C2 =B,2 B,2 | C2 C2 C2 | C2 =B,4 | E2 E2 E2 | %8
 F2 F2 F2 | E2 E2 E2 | D2 D2 D2 | C2 C2 C2 | c2 B2 _A2 | G6 |[M:4/4] z e/f/ g/f/e/f/ g/f/e/f/ d>c | %15
 e4 z4 | z g/_a/ b/a/g/a/ bg z2 | z4 z B/c/ d/c/d/c/ | =B2 z2 z4 | z F/G/ A/G/F/G/ A2 z2 | z8 | %21
 B2 B2 G4 |[M:3/4] e>eeeee | c4 z2 | d>ddddd | G4 z2 | _A4 z2 | A4 z2 | G4 z2 | z2 C2 D2 | E2 _A4 | %31
 D4 z2 | z6 | z4 z c | d2 d>cB>A | G2 c2 C2 | _a2 a>gf>e | d2 d2 d2 | g4 z2 | z6 | z6 | %41
 ^f2 g2 g2- | g2 ^f4 | g4 z2 | z4 z g | _a2 a>gf>e | d2 e2 f2 | g6- | g2 f2 f2- | f2 e4 | d6 | c6 | %52
[M:4/4] z8 | G/^F/G/A/ Bc/B/ A/G/A/B/ cd/c/ | B>A GG G2 ^F2 | G2 ef/e/ d/c/d/e/ fg/f/ | %56
 e/d/e/f/ g_a/g/ f/e/f/g/ ab/a/ | g2 E4 E2 | E2 F2 F2 z2 | F/=E/F/G/ _AB/A/ G/D/E/F/ Gc/B/ | %60
 _AG/F/ c4 =B2 | c4 z2 _a2 | g2 g2 g_agf | e8 |] %64
V:3
 z6 | z6 | z2 c4- | c2 B4 | _A2 G4- | G2 F4 | G6 | z6 | z6 | z2 _A3 A | _A2 G2 G2- | G2 F2 E2- | %12
w: ||O|_ rex|glo- *|* ri-|ae,|||do- mi-|ne vir- tu-||
 E2 D4 | E6 |[M:4/4] z8 | z eee e_d/c/ B/c/B/_A/ | GE z2 z E G/F/ G/A/ | B/c/ d/e/ c>B B4 | %18
w: |tum||Qui tri- um- pha- * * * * * *|* tor, qui tri- * um- *|pha- * tor _ ho- di- e|
 GA =B A/G/ cd =e d/c/ | fF z2 FG A G/F/ | Bc d c/B/ eBcd | eG/_A/ F>E E4 |[M:3/4] z6 | e2 ee ee | %24
w: su- per om- nes _ cae- los as- cen- *|dis- ti, su- per om- nes _|cae- los as- cen- * dis- ti, as- cen-|dis- * * * * ti||Ne de- re- lin- quas|
 d4 z2 | _d2 dd dd | c6- | c2 cc cc | B6 | _A2 G4- | G2 F4 | G4 z d | e2 e>d c>B | A2 A2 A2 | B6 | %35
w: nos,|ne de- re- lin- quas|nos,|_ de- re- lin- quas|nos|or- pha-||nos, sed|mit- te pro- mis- sum|Pa- tris in|nos,|
 z4 z =e | f2 f>e d>c | =B2 B2 B2 | c6 | d2 dd dd | d3 e c2- | c2 B4 | A6 | G4 z =B | c2 c>B _A>G | %45
w: sed|mit- te pro- mis- sum|Pa- tris in|nos.|Spi- ri- tum ve- ri-|ta- * *|||tis, sed|mit- te pro- mis- sum|
 F2 G2 A2 | B6 | G2 GG GG | _A3 Bcd | =B2 c4- | c2 =B4 | c6 |[M:4/4] z8 | z8 | %54
w: Pa- tris in|nos.|Spi- ri- tum ve- ri-|ta- * * *|||tis.|||
 G/F/G/A/ Bc/B/ A/G/A/B/ cd/c/ | =BA/G/ (c4 B2) | c4 z4 | E/D/E/F/ G_A/G/ F/E/F/G/ AB/A/ | %58
w: Al- * * * * * * * * * * * * *|* le- * lu- *|ia.|Al- * * * * * * * * * * * * *|
 GF/E/ (B4 A2) | B2 _A/G/A/B/ c/B/c/d/ c/B/A/G/ | F2 E/D/E/F/ G/F/G/_A/ G/F/E/D/ | %61
w: le- * * lu- *|ia, al- * * * le- * * * lu- * * *|ia, al- * * * le- * * * lu- * * *|
 C2 G_A/B/ (AB)(cd) | =BA/G/ (c4 B2) | c8 |] %64
w: ia, al- * * * * le- *|lu- * * * *|ia.|
V:4
 C,2 C,2 C,2 | B,,2 B,,2 B,,2 | _A,,2 A,,2 A,,2 | =E,,2 E,,2 E,,2 | F,,2 G,,2 G,,2 | %5
w: |||||
 _A,,2 A,,2 A,,2 | G,,6 | E,2 E,2 E,2 | D,2 D,2 D,2 | C,2 C,2 C,2 | B,,2 B,,2 B,,2 | %11
w: |||6# * *||76 * *|
 _A,,2 A,,2 A,,2 | _A,,2 B,,2 B,,2 | E,,6 |[M:4/4] z E,E,E, E,E,, B,,2 | E,,4 E,2 D,2 | %16
w: |||||
 E,2 z2 E,3 D,/C,/ | B,,E, F,2 B,,2 z2 | G,F,E,D, C,B,, A,,G,, | F,,2 z2 F,E,D,C, | %20
w: ||3# * * * 3# * * *||
 B,,A,,G,,F,, E,,2 _A,,2 | E,,2 B,,2 E,,4 |[M:3/4] E,2 F,2 G,2 | _A,2 G,2 F,2 | B,,2 C,2 D,2 | %25
w: |||||
 E,2 F,2 G,2 | _A,2 B,2 C2 | D,2 =E,2 ^F,2 | G,,2 A,,2 B,,2 | C,4 B,,2 | B,,6 | G,,4 A,,2 | %32
w: 7 * *||7 * *||6 *|||
 C,4 =E,2 | F,>G,F,>E,D,>C, | B,,4 B,,2 | C,>D,C,>B,,A,,>G,, | F,,2 F,,2 F,,2 | G,,2 G,,2 G,,2 | %38
w: ||||||
 C2 CB,A,G, | ^F,2 F,2 F,2 | G,4 E,2 | D,2 G,,4 | D,6 | G,,4 z2 | C,4 z2 | F,,4 z2 | B,,4 z2 | %47
w: |||||||||
 E,,4 z2 | F,,4 F,,2 | G,,2 C,,4 | G,,6 | C,,6 |[M:4/4] C,2 z _A,/G,/ F,D,G,G,, | %53
w: ||||||
 C,2 z E,/D,/ C,G,, D,D,, | G,,2 z E,/D,/ C,A,, D,D,, | G,,2 z E,/F,/ G,>F,G,G,, | %56
w: |||
 C,2 z _A,, B,,2 z2 | E,2 z G,,/_A,,/ B,,2 B,,2 | E,,2 z D,/E,/ F,2 F,,2 | B,,2 F,,2 z4 | z8 | %61
w: |||* 32||
 C,/B,,/C,/D,/ =E,D,/C,/ F,2 z F, | G,2 C,2 G,2 G,,2 | C,8 |] %64
w: |||

